assets/images/zig-zag.svg

<svg enable-background="new 0 0 2046 96" viewBox="0 0 2046 96" xmlns="http://www.w3.org/2000/svg"><path d="m1932.3 96c-36.6 0-55.6-18.7-70.9-33.8-13.1-12.9-22.6-22.2-42.8-22.2s-29.7 9.3-42.8 22.2c-15.3 15-34.3 33.8-70.9 33.8s-55.6-18.7-70.9-33.8c-13-12.9-22.5-22.2-42.7-22.2s-29.7 9.3-42.8 22.2c-15.3 15-34.3 33.8-70.9 33.8s-55.6-18.7-70.9-33.8c-13-12.9-22.5-22.2-42.7-22.2s-29.7 9.3-42.8 22.2c-15.3 15-34.3 33.8-70.9 33.8s-55.6-18.7-70.9-33.8c-13.1-12.9-22.6-22.2-42.8-22.2s-29.7 9.3-42.8 22.2c-15.3 15-34.3 33.8-70.9 33.8s-55.6-18.7-70.9-33.8c-13-12.9-22.5-22.2-42.7-22.2s-29.7 9.3-42.8 22.2c-15.3 15-34.3 33.8-70.9 33.8s-55.6-18.7-70.8-33.8c-13.1-12.9-22.6-22.2-42.8-22.2s-29.7 9.3-42.8 22.2c-15.3 15-34.3 33.8-70.9 33.8s-55.6-18.7-70.9-33.8c-13.1-12.9-22.5-22.2-42.7-22.2s-29.7 9.3-42.8 22.2c-15.3 15.1-34.3 33.8-70.9 33.8s-55.6-18.7-70.9-33.8c-13.1-12.9-22.6-22.2-42.8-22.2s-29.7 9.3-42.8 22.2c-15.3 15-34.3 33.8-70.9 33.8s-55.5-18.7-70.8-33.8c-13.1-12.9-22.6-22.2-42.8-22.2v-40c36.6 0 55.6 18.7 70.9 33.8 13.1 12.9 22.5 22.2 42.8 22.2s29.7-9.3 42.8-22.2c15.2-15.1 34.2-33.8 70.8-33.8s55.6 18.7 70.9 33.8c13.1 12.9 22.6 22.2 42.8 22.2s29.7-9.3 42.8-22.2c15.2-15.1 34.2-33.8 70.9-33.8s55.6 18.7 70.9 33.8c13 12.9 22.5 22.2 42.7 22.2s29.7-9.3 42.8-22.2c15.3-15.1 34.3-33.8 70.9-33.8s55.6 18.7 70.9 33.8c13.1 12.9 22.5 22.2 42.8 22.2 20.2 0 29.7-9.3 42.8-22.2 15.2-15.1 34.2-33.8 70.8-33.8s55.6 18.7 70.9 33.8c13.1 12.9 22.6 22.2 42.8 22.2s29.7-9.3 42.8-22.2c15.2-15.1 34.2-33.8 70.9-33.8 36.6 0 55.6 18.7 70.9 33.8 13.1 12.9 22.6 22.2 42.8 22.2s29.7-9.3 42.8-22.2c15.3-15 34.3-33.8 70.9-33.8s55.6 18.7 70.9 33.8c13.1 12.9 22.6 22.2 42.8 22.2s29.7-9.3 42.8-22.2c15.3-15 34.3-33.8 70.9-33.8s55.6 18.7 70.9 33.8c13.1 12.9 22.6 22.2 42.8 22.2s29.7-9.3 42.8-22.2c15-15.1 34-33.8 70.7-33.8 36.6 0 55.6 18.7 70.9 33.8 13.1 12.9 22.6 22.2 42.8 22.2s29.7-9.3 42.8-22.2c15.3-15 34.3-33.8 70.9-33.8v40c-20.2 0-29.7 9.3-42.8 22.2-15.4 15.1-34.4 33.8-71 33.8z" fill="#8165ba"/></svg>

<?xml version="1.0" encoding="utf-8"?>
<!-- Generator: Adobe Illustrator 19.0.0, SVG Export Plug-In . SVG Version: 6.00 Build 0)  -->
<svg version="1.1" id="Layer_1" xmlns="http://www.w3.org/2000/svg" xmlns:xlink="http://www.w3.org/1999/xlink" x="0px" y="0px"
	 viewBox="0 0 2046 96" style="enable-background:new 0 0 2046 96;" xml:space="preserve">
<style type="text/css">
	.st0{fill:#8165BA;}
</style>
<g>
	<path class="st0" d="M1932.3,96c-36.6,0-55.6-18.7-70.9-33.8c-13.1-12.9-22.6-22.2-42.8-22.2c-20.2,0-29.7,9.3-42.8,22.2
		c-15.3,15-34.3,33.8-70.9,33.8c-36.6,0-55.6-18.7-70.9-33.8C1621,49.3,1611.5,40,1591.3,40c-20.2,0-29.7,9.3-42.8,22.2
		c-15.3,15-34.3,33.8-70.9,33.8s-55.6-18.7-70.9-33.8C1393.7,49.3,1384.2,40,1364,40s-29.7,9.3-42.8,22.2
		c-15.3,15-34.3,33.8-70.9,33.8c-36.6,0-55.6-18.7-70.9-33.8c-13.1-12.9-22.6-22.2-42.8-22.2c-20.2,0-29.7,9.3-42.8,22.2
		c-15.3,15-34.3,33.8-70.9,33.8c-36.6,0-55.6-18.7-70.9-33.8C939,49.3,929.5,40,909.3,40c-20.2,0-29.7,9.3-42.8,22.2
		c-15.3,15-34.3,33.8-70.9,33.8S740,77.3,724.8,62.2C711.7,49.3,702.2,40,682,40c-20.2,0-29.7,9.3-42.8,22.2
		c-15.3,15-34.3,33.8-70.9,33.8c-36.6,0-55.6-18.7-70.9-33.8C484.3,49.3,474.9,40,454.7,40c-20.2,0-29.7,9.3-42.8,22.2
		C396.6,77.3,377.6,96,341,96c-36.6,0-55.6-18.7-70.9-33.8C257,49.3,247.5,40,227.3,40c-20.2,0-29.7,9.3-42.8,22.2
		c-15.3,15-34.3,33.8-70.9,33.8C77,96,58.1,77.3,42.8,62.2C29.7,49.3,20.2,40,0,40V0c36.6,0,55.6,18.7,70.9,33.8
		C84,46.7,93.4,56,113.7,56s29.7-9.3,42.8-22.2C171.7,18.7,190.7,0,227.3,0c36.6,0,55.6,18.7,70.9,33.8C311.3,46.7,320.8,56,341,56
		c20.2,0,29.7-9.3,42.8-22.2C399,18.7,418,0,454.7,0s55.6,18.7,70.9,33.8C538.6,46.7,548.1,56,568.3,56c20.2,0,29.7-9.3,42.8-22.2
		C626.4,18.7,645.4,0,682,0s55.6,18.7,70.9,33.8C766,46.7,775.4,56,795.7,56c20.2,0,29.7-9.3,42.8-22.2C853.7,18.7,872.7,0,909.3,0
		c36.6,0,55.6,18.7,70.9,33.8C993.3,46.7,1002.8,56,1023,56c20.2,0,29.7-9.3,42.8-22.2C1081,18.7,1100,0,1136.7,0
		c36.6,0,55.6,18.7,70.9,33.8c13.1,12.9,22.6,22.2,42.8,22.2c20.2,0,29.7-9.3,42.8-22.2c15.3-15,34.3-33.8,70.9-33.8
		s55.6,18.7,70.9,33.8c13.1,12.9,22.6,22.2,42.8,22.2s29.7-9.3,42.8-22.2c15.3-15,34.3-33.8,70.9-33.8c36.6,0,55.6,18.7,70.9,33.8
		c13.1,12.9,22.6,22.2,42.8,22.2c20.2,0,29.7-9.3,42.8-22.2C1763,18.7,1782,0,1818.7,0c36.6,0,55.6,18.7,70.9,33.8
		c13.1,12.9,22.6,22.2,42.8,22.2c20.2,0,29.7-9.3,42.8-22.2c15.3-15,34.3-33.8,70.9-33.8v40c-20.2,0-29.7,9.3-42.8,22.2
		C1987.9,77.3,1968.9,96,1932.3,96z"/>
</g>
</svg>
